images/icon-workflow-control.svg

<svg width="50" height="50" viewBox="0 0 50 50" fill="none" xmlns="http://www.w3.org/2000/svg">
<g clip-path="url(#clip0_130_1157)">
<path d="M43.0805 21.8557H27.9222C27.7063 21.8557 27.4993 21.77 27.3467 21.6173C27.194 21.4647 27.1083 21.2577 27.1083 21.0418V15.2529H23.036V21.0418C23.0353 21.2574 22.9493 21.464 22.7969 21.6165C22.6444 21.769 22.4378 21.855 22.2222 21.8557H6.88605C6.4536 21.8557 6.03886 22.0275 5.73307 22.3333C5.42728 22.6391 5.25549 23.0538 5.25549 23.4863V30.9863H9.32772V26.8196C9.32845 26.6035 9.41482 26.3965 9.56789 26.2439C9.72097 26.0914 9.92827 26.0057 10.1444 26.0057H23.036V36.889H27.1083V26.0224H39.8222C40.038 26.0224 40.245 26.1081 40.3977 26.2608C40.5503 26.4134 40.636 26.6204 40.636 26.8363V31.0863H44.7222V23.4863C44.7222 23.2712 44.6796 23.0583 44.597 22.8597C44.5143 22.6611 44.3932 22.4809 44.2407 22.3293C44.0881 22.1778 43.907 22.0579 43.7079 21.9766C43.5088 21.8953 43.2956 21.8542 43.0805 21.8557Z" fill="#50E6FF"/>
<path d="M31.6055 0H18.225C17.4088 0 16.7472 0.661624 16.7472 1.47778V14.8583C16.7472 15.6745 17.4088 16.3361 18.225 16.3361H31.6055C32.4217 16.3361 33.0833 15.6745 33.0833 14.8583V1.47778C33.0833 0.661624 32.4217 0 31.6055 0Z" fill="#1E73BE"/>
<path d="M29.0333 3.13867H20.7944C20.2912 3.13867 19.8833 3.54659 19.8833 4.04978V12.2887C19.8833 12.7919 20.2912 13.1998 20.7944 13.1998H29.0333C29.5365 13.1998 29.9444 12.7919 29.9444 12.2887V4.04978C29.9444 3.54659 29.5365 3.13867 29.0333 3.13867Z" fill="white"/>
<path d="M12.7499 31.0195H1.82772C1.16037 31.0195 0.619385 31.5605 0.619385 32.2279V43.1501C0.619385 43.8174 1.16037 44.3584 1.82772 44.3584H12.7499C13.4173 44.3584 13.9583 43.8174 13.9583 43.1501V32.2279C13.9583 31.5605 13.4173 31.0195 12.7499 31.0195Z" fill="url(#paint0_linear_130_1157)"/>
<path d="M30.5305 36.6611H19.6082C18.9409 36.6611 18.3999 37.2021 18.3999 37.8695V48.7917C18.3999 49.459 18.9409 50 19.6082 50H30.5305C31.1978 50 31.7388 49.459 31.7388 48.7917V37.8695C31.7388 37.2021 31.1978 36.6611 30.5305 36.6611Z" fill="url(#paint1_linear_130_1157)"/>
<path d="M48.1722 31.1084H37.25C36.5826 31.1084 36.0416 31.6494 36.0416 32.3167V43.239C36.0416 43.9063 36.5826 44.4473 37.25 44.4473H48.1722C48.8395 44.4473 49.3805 43.9063 49.3805 43.239V32.3167C49.3805 31.6494 48.8395 31.1084 48.1722 31.1084Z" fill="url(#paint2_linear_130_1157)"/>
</g>
<defs>
<linearGradient id="paint0_linear_130_1157" x1="7.29029" y1="31.0142" x2="7.29029" y2="44.355" gradientUnits="userSpaceOnUse">
<stop offset="0.225" stop-color="#5EA0EF"/>
<stop offset="1" stop-color="#1E73BE"/>
</linearGradient>
<linearGradient id="paint1_linear_130_1157" x1="25.0708" y1="36.6558" x2="25.0708" y2="49.9966" gradientUnits="userSpaceOnUse">
<stop offset="0.225" stop-color="#5EA0EF"/>
<stop offset="1" stop-color="#1E73BE"/>
</linearGradient>
<linearGradient id="paint2_linear_130_1157" x1="42.7125" y1="31.1031" x2="42.7125" y2="44.4439" gradientUnits="userSpaceOnUse">
<stop offset="0.225" stop-color="#5EA0EF"/>
<stop offset="1" stop-color="#1E73BE"/>
</linearGradient>
<clipPath id="clip0_130_1157">
<rect width="50" height="50" fill="white"/>
</clipPath>
</defs>
</svg>

<svg xmlns="http://www.w3.org/2000/svg" width="50" height="50" fill="none" viewBox="0 0 50 50"><g clip-path="url(#a)"><path fill="#50e6ff" d="M43.08 21.856H27.923a.813.813 0 0 1-.814-.814v-5.79h-4.072v5.79a.817.817 0 0 1-.814.814H6.886a1.63 1.63 0 0 0-1.63 1.63v7.5h4.072V26.82a.817.817 0 0 1 .816-.814h12.892v10.883h4.072V26.022h12.714a.814.814 0 0 1 .814.814v4.25h4.086v-7.6a1.63 1.63 0 0 0-1.642-1.63"/><path fill="#1e73be" d="M31.606 0H18.225c-.816 0-1.478.662-1.478 1.478v13.38c0 .816.662 1.478 1.478 1.478h13.38c.817 0 1.478-.661 1.478-1.478V1.478C33.083.662 32.422 0 31.606 0"/><path fill="#fff" d="M29.033 3.139h-8.239a.91.91 0 0 0-.91.91v8.24c0 .503.407.91.91.91h8.24a.91.91 0 0 0 .91-.91v-8.24a.91.91 0 0 0-.91-.91"/><path fill="url(#b)" d="M12.75 31.02H1.828c-.668 0-1.209.54-1.209 1.208V43.15c0 .667.541 1.208 1.209 1.208H12.75c.667 0 1.208-.54 1.208-1.208V32.228c0-.668-.54-1.209-1.208-1.209"/><path fill="url(#c)" d="M30.53 36.661H19.609c-.667 0-1.208.541-1.208 1.209v10.922c0 .667.54 1.208 1.208 1.208h10.923c.667 0 1.208-.541 1.208-1.208V37.87c0-.668-.541-1.209-1.209-1.209"/><path fill="url(#d)" d="M48.172 31.108H37.25c-.667 0-1.208.541-1.208 1.209v10.922c0 .667.54 1.208 1.208 1.208h10.922c.668 0 1.209-.54 1.209-1.208V32.317c0-.668-.541-1.209-1.209-1.209"/></g><defs><linearGradient id="b" x1="7.29" x2="7.29" y1="31.014" y2="44.355" gradientUnits="userSpaceOnUse"><stop offset=".225" stop-color="#5ea0ef"/><stop offset="1" stop-color="#1e73be"/></linearGradient><linearGradient id="c" x1="25.071" x2="25.071" y1="36.656" y2="49.997" gradientUnits="userSpaceOnUse"><stop offset=".225" stop-color="#5ea0ef"/><stop offset="1" stop-color="#1e73be"/></linearGradient><linearGradient id="d" x1="42.712" x2="42.712" y1="31.103" y2="44.444" gradientUnits="userSpaceOnUse"><stop offset=".225" stop-color="#5ea0ef"/><stop offset="1" stop-color="#1e73be"/></linearGradient><clipPath id="a"><path fill="#fff" d="M0 0h50v50H0z"/></clipPath></defs></svg>
